src/images/global/icons/action/zoom-out-fill.svg

<?xml version="1.0" encoding="UTF-8"?>
<svg width="48px" height="48px" viewBox="0 0 48 48" version="1.1" xmlns="http://www.w3.org/2000/svg" xmlns:xlink="http://www.w3.org/1999/xlink">
    <!-- Generator: Sketch 46.2 (44496) - http://www.bohemiancoding.com/sketch -->
    <title>icon/Action/zoom-out-fill</title>
    <desc>Created with Sketch.</desc>
    <defs>
        <path d="M23.5472308,20.8533589 C22.8711923,20.2303923 17.6666538,15.1905072 16.4358462,13.998201 C17.4208846,12.5618756 17.9976923,10.826067 17.9976923,8.95590431 C17.9975769,4.00960766 13.9686923,0 8.99884615,0 C4.02888462,0 0,4.00960766 0,8.95578947 C0,13.9018565 4.02888462,17.9115789 8.99884615,17.9115789 C10.7607692,17.9115789 12.4029231,17.4057416 13.7906538,16.5348517 C14.9098846,17.6396555 20.1620769,22.8208995 20.8782692,23.4744115 C21.2031923,23.7707943 21.5943462,23.9165167 21.9933462,23.9165167 C22.4892692,23.9164019 22.9970769,23.691445 23.4043846,23.2515215 C24.1249615,22.4731866 24.1863462,21.4422201 23.5472308,20.8533589 L23.5472308,20.8533589 Z M12.4603846,9.64478469 L5.53730769,9.64478469 C5.15503846,9.64478469 4.845,9.33622967 4.845,8.95578947 C4.845,8.57534928 5.15503846,8.26679426 5.53730769,8.26679426 L12.4603846,8.26679426 C12.8426538,8.26679426 13.1526923,8.57534928 13.1526923,8.95578947 C13.1526923,9.33622967 12.8427692,9.64478469 12.4603846,9.64478469 L12.4603846,9.64478469 Z" id="path-1"></path>
    </defs>
    <g id="Symbols" stroke="none" stroke-width="1" fill="none" fill-rule="evenodd">
        <g id="icon/Action/zoom-out-fill">
            <g id="Icon" transform="translate(12.000000, 12.000000)">
                <mask id="mask-2" fill="white">
                    <use xlink:href="#path-1"></use>
                </mask>
                <use id="Mask" fill="#384048" xlink:href="#path-1"></use>
                <g id="Color/Grayscale/Night-Sky" mask="url(#mask-2)" fill="#111111">
                    <g transform="translate(-12.000000, -12.000000)" id="Swatch">
                        <rect x="0" y="0" width="48" height="48"></rect>
                    </g>
                </g>
            </g>
        </g>
    </g>
</svg>

<?xml version="1.0" encoding="utf-8"?>
<!-- Generator: Adobe Illustrator 21.0.2, SVG Export Plug-In . SVG Version: 6.00 Build 0)  -->
<svg version="1.1" id="action-zoom-out-fill-Layer_1" xmlns="http://www.w3.org/2000/svg" xmlns:xlink="http://www.w3.org/1999/xlink" x="0px" y="0px"
	 viewBox="0 0 48 48" style="enable-background:new 0 0 48 48;" xml:space="preserve">
<title>icon/Action/zoom-out-fill</title>
<g transform="translate(12 12)">
	<g>
		<path id="action-zoom-out-fill-a_1_" style="fill:#384048;" d="M23.5,20.9c-0.7-0.6-5.9-5.7-7.1-6.9c1-1.5,1.6-3.2,1.6-5c0-4.9-4-9-9-9S0,4,0,9s4,9,9,9
			c1.7,0,3.4-0.5,4.8-1.4c1.1,1.1,6.4,6.3,7.1,6.9c0.3,0.3,0.7,0.4,1.1,0.4c0.5,0,1-0.2,1.4-0.7C24.1,22.5,24.2,21.4,23.5,20.9z
			 M12.5,9.6H5.5C5.2,9.6,4.8,9.3,4.8,9c0,0,0,0,0,0c0-0.4,0.3-0.7,0.7-0.7h6.9c0.4,0,0.7,0.3,0.7,0.7c0,0,0,0,0,0
			C13.2,9.3,12.8,9.6,12.5,9.6C12.5,9.6,12.5,9.6,12.5,9.6z"/>
	</g>
	<defs>
		<filter id="action-zoom-out-fill-Adobe_OpacityMaskFilter" filterUnits="userSpaceOnUse" x="-12" y="-12" width="48" height="48">
			<feColorMatrix  type="matrix" values="1 0 0 0 0  0 1 0 0 0  0 0 1 0 0  0 0 0 1 0"/>
		</filter>
	</defs>
	<mask maskUnits="userSpaceOnUse" x="-12" y="-12" width="48" height="48" id="action-zoom-out-fill-b">
		<g style="filter:url(#action-zoom-out-fill-Adobe_OpacityMaskFilter);">
			<path id="action-zoom-out-fill-a" style="fill:#FFFFFF;" d="M23.5,20.9c-0.7-0.6-5.9-5.7-7.1-6.9c1-1.5,1.6-3.2,1.6-5c0-4.9-4-9-9-9S0,4,0,9s4,9,9,9
				c1.7,0,3.4-0.5,4.8-1.4c1.1,1.1,6.4,6.3,7.1,6.9c0.3,0.3,0.7,0.4,1.1,0.4c0.5,0,1-0.2,1.4-0.7C24.1,22.5,24.2,21.4,23.5,20.9z
				 M12.5,9.6H5.5C5.2,9.6,4.8,9.3,4.8,9c0,0,0,0,0,0c0-0.4,0.3-0.7,0.7-0.7h6.9c0.4,0,0.7,0.3,0.7,0.7c0,0,0,0,0,0
				C13.2,9.3,12.8,9.6,12.5,9.6C12.5,9.6,12.5,9.6,12.5,9.6z"/>
		</g>
	</mask>
	<g style="mask:url(#action-zoom-out-fill-b);">
		<path style="fill:#111111;" d="M-12-12h48v48h-48V-12z"/>
	</g>
</g>
</svg>
